packages/foundations/icons/Business/Pound.svg

<svg width="24" height="24" viewBox="0 0 24 24" fill="none" xmlns="http://www.w3.org/2000/svg">
<path fill-rule="evenodd" clip-rule="evenodd" d="M4.5 12C4.5 11.4477 4.94772 11 5.5 11H7.75H10.25H15C15.5523 11 16 11.4477 16 12C16 12.5523 15.5523 13 15 13H10.25H7.75H5.5C4.94772 13 4.5 12.5523 4.5 12Z" fill="#3D474D"/>
<path d="M10.25 15.1163V13H7.75V15.1163C7.75 16.5592 7.09407 17.924 5.9673 18.8254L5.71913 19.0239C5.15621 19.4743 4.82852 20.1561 4.82852 20.877C4.82852 22.1876 5.89097 23.25 7.20156 23.25H18C18.6904 23.25 19.25 22.6904 19.25 22C19.25 21.3096 18.6904 20.75 18 20.75H7.56326C9.26213 19.374 10.25 17.304 10.25 15.1163Z" fill="#3D474D"/>
<path d="M10.25 6.5C10.25 4.70507 11.7051 3.25 13.5 3.25H14C15.5188 3.25 16.75 4.48122 16.75 6C16.75 6.69036 17.3096 7.25 18 7.25C18.6904 7.25 19.25 6.69036 19.25 6C19.25 3.1005 16.8995 0.75 14 0.75H13.5C10.3244 0.75 7.75 3.32436 7.75 6.5V11H10.25V6.5Z" fill="#3D474D"/>
</svg>

<svg width="24" height="24" fill="none" xmlns="http://www.w3.org/2000/svg"><path fill-rule="evenodd" clip-rule="evenodd" d="M4.5 12a1 1 0 011-1H15a1 1 0 110 2H5.5a1 1 0 01-1-1z" fill="#3D474D"/><path d="M10.25 15.116V13h-2.5v2.116a4.75 4.75 0 01-1.783 3.71l-.248.198a2.373 2.373 0 001.483 4.226H18a1.25 1.25 0 100-2.5H7.563a7.25 7.25 0 002.687-5.634zM10.25 6.5a3.25 3.25 0 013.25-3.25h.5A2.75 2.75 0 0116.75 6a1.25 1.25 0 102.5 0C19.25 3.1 16.9.75 14 .75h-.5A5.75 5.75 0 007.75 6.5V11h2.5V6.5z" fill="#3D474D"/></svg>
